public/images/logo/quartz.svg

<svg width="48" height="48" viewBox="0 0 48 48" fill="none" xmlns="http://www.w3.org/2000/svg">
<path fill-rule="evenodd" clip-rule="evenodd" d="M26.2587 40.2501C26.1449 40.126 26.004 40.0299 25.8469 39.9693C25.6898 39.9088 25.5209 39.8854 25.3532 39.901C24.9278 39.901 24.4914 39.9556 24.055 39.9556C20.6739 39.9647 17.3769 38.902 14.6376 36.9201C11.8982 34.9382 9.85749 32.1391 8.80846 28.9248C7.75943 25.7105 7.7561 22.2465 8.79895 19.0302C9.84179 15.8139 11.8772 13.0109 14.6127 11.0238C17.3482 9.03662 20.6432 7.96758 24.0243 7.97019C27.4054 7.9728 30.6987 9.04693 33.4312 11.0383C36.1636 13.0297 38.1947 15.8358 39.2325 19.0537C40.2704 22.2716 40.2617 25.7356 39.2077 28.9483C39.1102 29.201 39.1102 29.481 39.2077 29.7337L42.8296 37.5228C42.8698 37.6093 42.9319 37.6836 43.0098 37.7386C43.0877 37.7935 43.1787 37.827 43.2736 37.8359C43.3685 37.8447 43.4641 37.8285 43.5508 37.7889C43.6375 37.7493 43.7123 37.6876 43.7677 37.6101C46.9871 32.9341 48.4447 27.2683 47.8816 21.6192C47.3184 15.9701 44.7709 10.7035 40.6917 6.75517C36.6125 2.8068 31.2658 0.432298 25.6013 0.053509C19.9369 -0.32528 14.3216 1.31618 9.75297 4.68625C5.18439 8.05633 1.95837 12.9368 0.648048 18.4606C-0.662271 23.9844 0.0279581 29.7939 2.59611 34.8569C5.16426 39.9199 9.44404 43.9086 14.6751 46.1144C19.9062 48.3201 25.7498 48.6001 31.1678 46.9046C31.2545 46.8769 31.3328 46.8279 31.3958 46.7622C31.4587 46.6964 31.5041 46.6159 31.528 46.5281C31.5519 46.4402 31.5534 46.3478 31.5324 46.2593C31.5114 46.1707 31.4685 46.0888 31.4078 46.021L26.2587 40.2501Z" fill="#FF4D6A"/>
<path fill-rule="evenodd" clip-rule="evenodd" d="M33.7419 26.7558L30.371 31.043C30.2429 31.2029 30.067 31.3175 29.8691 31.3703L24.6001 32.723H24.5237H24.4692C24.466 32.7013 24.466 32.6793 24.4692 32.6576C24.4641 32.6361 24.4641 32.6136 24.4692 32.5921L26.1601 26.1776C26.1822 26.0807 26.2235 25.9893 26.2816 25.9087C26.3397 25.8282 26.4133 25.7601 26.4982 25.7085C26.6617 25.5993 26.8606 25.5564 27.0546 25.5885L33.6546 26.5485H33.72C33.7247 26.5664 33.7247 26.5851 33.72 26.603C33.7251 26.6246 33.7251 26.647 33.72 26.6685C33.7304 26.6802 33.7377 26.6943 33.7415 26.7095C33.7453 26.7247 33.7454 26.7405 33.7419 26.7558ZM25.0146 34.4576L30.9055 32.9085C31.1051 32.8595 31.282 32.7441 31.4073 32.5812L35.16 27.8249H35.2255H35.2909L42.2727 42.8357C42.3495 43.0144 42.3795 43.2096 42.36 43.403C42.3366 43.5975 42.2613 43.7822 42.1418 43.9375L40.44 46.3266C40.3302 46.462 40.1818 46.5609 40.0146 46.6103L37.1128 47.3848C36.9235 47.4368 36.7238 47.4368 36.5346 47.3848C36.3452 47.3259 36.1755 47.2166 36.0437 47.0684L24.9273 34.6648V34.6103C24.9216 34.6003 24.9186 34.5891 24.9186 34.5776C24.9186 34.5661 24.9216 34.5548 24.9273 34.5448C24.9226 34.5365 24.92 34.5271 24.92 34.5176C24.92 34.508 24.9226 34.4986 24.9273 34.4903L25.0146 34.4576Z" fill="#FF4D6A"/>
</svg>

<svg width="48" height="48" fill="none" xmlns="http://www.w3.org/2000/svg"><path fill-rule="evenodd" clip-rule="evenodd" d="M26.259 40.25a1.092 1.092 0 0 0-.906-.349c-.425 0-.862.055-1.298.055a15.992 15.992 0 1 1 15.153-11.008 1.091 1.091 0 0 0 0 .786l3.622 7.789a.546.546 0 0 0 .938.087 24 24 0 1 0-12.6 9.295.546.546 0 0 0 .24-.884l-5.15-5.77Z" fill="#FF4D6A"/><path fill-rule="evenodd" clip-rule="evenodd" d="m33.742 26.756-3.371 4.287a.96.96 0 0 1-.502.327L24.6 32.723h-.131a.224.224 0 0 1 0-.065.142.142 0 0 1 0-.066l1.691-6.414a.742.742 0 0 1 .338-.47.774.774 0 0 1 .557-.12l6.6.96h.065a.107.107 0 0 1 0 .055.142.142 0 0 1 0 .066.097.097 0 0 1 .022.087Zm-8.727 7.702 5.89-1.55a.905.905 0 0 0 .502-.327l3.753-4.756h.131l6.982 15.01c.076.18.106.375.087.568a1.09 1.09 0 0 1-.218.535l-1.702 2.389a.862.862 0 0 1-.425.283l-2.902.775c-.19.052-.39.052-.578 0a1.09 1.09 0 0 1-.491-.317L24.927 34.665v-.055a.066.066 0 0 1 0-.065.055.055 0 0 1 0-.055l.088-.032Z" fill="#FF4D6A"/></svg>
